X: 1
T: Drumsheug
C: (Trad.)
R: strathspey
Z: 2013 John Chambers <jc:trillian.mit.edu>
M: C
L: 1/16
K: D
A3G |\
"D"FD3 D3A "Bm"d4 d3f | "Em"e3d e3f "A7"EEE2 E3G |\
"D"FD3 D3A "Bm"d4 d3f | "Em"e3d "A7"ef3 "D"ddd2 :|
d3f |\
"D"a3f a3b "(Bm)"a3f d3f | "Em"e3d "D"f3d "A7"eee2 e3f |\
"D"a3f a3b "(Bm)"a3f d3f | "Em"e3d "A7"e3f "D"ddd2 ||
d3f |\
"D"a3f a3b "(Bm)"a3f d3f | "Em"e3d "D"f3d "A7"eee2 e3a |\
"Bm"b3f "A"a3e "D"f3d "A7"e3c | "Bm"d3B "A7"A3F "D"d4 |]
